!!!!SEGMENT: pl-kk--kk-i-389--008-005_anonim--missa-no-8-sanctus.krn
!!!cenid: 17xx:2510
!!!COM: Anonim
!!!COM-rismID: pe30004985
!!!CDT:
!!!CNT:
!!!OPR: [Missa] No. 8.
!!!OTL: Sanctus
!!!OMV: 005
!!!PDT:
!!!AGN: Sacred; Mass
!!!YEC: Copyright 2022 Narodowy Instytut Fryderyka Chopina (https://polishscores.org)
!!!YEM: License CC-BY-4.0 (https://creativecommons.org/licenses/by/4.0)
!!!SMS-siglum: PL-Kk
!!!SMS-shelfmark: Kk.I.389
!!!SMS-variant:
!!!SMS-altvar:
!!!SMS-shelfwork: 008-005 M
!!!NIFC-rismSourceID: 1001146182
!!!NIFC-rismChildID: 1001147247
!!!NIFC-islandoraID: pl-kk:6976
!!!URL-pdf-islandora: https://repozytorium.nifc.pl/islandora/object/pl-kk%3A6976/datastream/PDF/view
!!!URL-scan: https://polish.musicsources.pl/pl/lokalizacje/galeria/rekopisy/5999/1 @EN{Scan on Polish Music Sources Website} @PL{Skany w portalu Dziedzictwo Muzyki Polskiej w otwartym dostępie}
!!!IIIF:
!!!ONB-nifc: UWAGA: S – skan 14-15 , A – 32-34, T – 51-53 , B – 70-71. Części Mszy: Rorate, Kyrie, Gloria, Graduale, Sanctus, Benedictus, Agnus, Dona.
!!!AIN: 1 alto 1 bass 1 soprn 1 tenor
!!!key: C
**kern	**text	**kern	**text	**kern	**text	**kern	**text
*part4	*part4	*part3	*part3	*part2	*part2	*part1	*part1
*staff4	*staff4	*staff3	*staff3	*staff2	*staff2	*staff1	*staff1
*I"Basso.	*	*I"Tenore.	*	*I"Alto.	*	*I"Soprano.	*
*I'B	*	*I'T	*	*I'A	*	*I'S	*
*ICvox	*	*ICvox	*	*ICvox	*	*ICvox	*
*Ibass	*	*Itenor	*	*Ialto	*	*Isoprn	*
*clefF4	*	*clefC4	*	*clefC3	*	*clefC1	*
*k[]	*	*k[]	*	*k[]	*	*k[]	*
*C:	*	*C:	*	*C:	*	*C:	*
*M2/2	*	*M2/2	*	*M2/2	*	*M2/2	*
*met(C.)	*	*met(C.)	*	*met(C.)	*	*met(C.)	*
=1	=1	=1	=1	=1	=1	=1	=1
*	*	*	*	*	*	*all\right:global	*
*	*	*2\right	*	*2\right	*	*2\right	*
!	!	!LO:TX:t=P:problem:2\right:global	!	!LO:TX:t=P:problem:2\right:global	!	!LO:TX:t=P:problem:2\right:global	!
2C/	San-	2c\	San-	2e\	San-	2g\	San-
*2\right	*	*	*	*	*	*	*
!LO:TX:t=P:problem:2\right:global	!	!	!	!	!	!	!
2G\	-ctus	2B\	-ctus	2d\	-ctus	2g\	-ctus
=2	=2	=2	=2	=2	=2	=2	=2
!LO:TX:a:t=1.	!	!	!	!	!	!LO:TX:a:t=1.	!
1r	.	8G/L	San-	8B/L	san-	1r	.
.	.	8A/J	.	8c/J	.	.	.
.	.	8A/L	.	8c\L	-ctus	.	.
.	.	8B/J	.	8d\J	.	.	.
.	.	8B\L	.	8d\L	san-	.	.
.	.	8c\J	.	8e\J	.	.	.
.	.	8c\L	.	8e\L	-ctus	.	.
.	.	8d\J	-ctus,	8f\J	.	.	.
=3	=3	=3	=3	=3	=3	=3	=3
2G\	San-	2d\	San-	2f\	san-	2b\	san-
2C/	-ctus	2c\	-ctus,	2e\	-ctus	2g\	-ctus
=4	=4	=4	=4	=4	=4	=4	=4
!	!	!	!	!	!	!LO:TX:a:t=1.	!
2r	.	8e\L	san-	8g\L	san-	1r	.
.	.	8d\J	.	8f\J	.	.	.
.	.	8d\L	.	8f\L	-ctus	.	.
.	.	8c\J	.	8e\J	.	.	.
4r	.	8e\L	.	8g\L	san-	.	.
.	.	8d\J	.	8f\J	.	.	.
4C/	san-	8d\L	.	8f\L	.	.	.
.	.	8c\J	-ctus	8e\J	.	.	.
!	!	!LO:LB:g=original	!	!	!	!	!
=5	=5	=5	=5	=5	=5	=5	=5
2G\	.	2c\	san-	2e\	.	2g\	San-
2GG/	-ctus	2B\	-ctus	2d\	-ctus,	2g\	-ctus
!	!	!	!	!LO:LB:g=original	!	!	!
=6	=6	=6	=6	=6	=6	=6	=6
!	!	!	!	!	!	!LO:TX:a:t=1.	!
4G\	Do-	4B\	Do-	4d\	Do-	1r	.
8G\	-mi-	8B\	-mi-	8d\	-mi-	.	.
8G\	-nus	8c\	-nus	8e\	-nus	.	.
4G\	De-	8d\L	De-	8f\L	De-	.	.
.	.	8c\J	.	8e\J	.	.	.
4G\	-us	8d\L	-us	8f\L	-us	.	.
.	.	8B\J	.	8d\J	.	.	.
=7	=7	=7	=7	=7	=7	=7	=7
!	!	!LO:TX:a:t=1.	!	!	!	!	!
4C/	Do-	1r	.	4e\	Do-	4cc\	Do-
8C/	-mi-	.	.	8e\	-mi-	8cc\	-mi-
8C/	-nus	.	.	8f\	-nus	8dd\	-nus
!LO:LB:g=original	!	!	!	!	!	!	!
4C/	De-	.	.	8g\L	De-	8ee\L	De-
.	.	.	.	8f\J	.	8dd\J	.
4C/	-us	.	.	8g\L	-us	8ee\L	-us
.	.	.	.	8e\J	.	8cc\J	.
!	!	!	!	!	!	!LO:LB:g=original	!
=8	=8	=8	=8	=8	=8	=8	=8
4C/	sa-	2.e\	sa-	2.g\	sa-	2.cc\	sa-
4c\	.	.	.	.	.	.	.
4A\	.	.	.	.	.	.	.
4F#X\	-ba-	4d\	-ba-	4f#X\	-ba-	4a\	-ba-
=9	=9	=9	=9	=9	=9	=9	=9
!	!	!	!	!	!	!LO:TX:t=P:problem:poj. kreska taktowa	!
2G\	-ot	1d	-ot,	1g;	-ot,	1b	-ot,
2r;	.	.	.	.	.	.	.
=10||	=10||	=10||	=10||	=10||	=10||	=10	=10
2G\	Ple-	2B\	Ple-	2g\	Ple-	2dd\	Ple-
4A\	-ni	4c\	-ni	4f#X\	-ni	4cc\	-ni
4B\	sunt	4d\	sunt	4fn\	sunt	4g\	sunt
!	!	!	!	!LO:LB:g=original	!	!	!
=11	=11	=11	=11	=11	=11	=11	=11
4c\	ce-	4c\	ce-	4e\	ce-	2g\	ce-
4G\	.	4d\	.	4fn\	.	.	.
.	.	8qf/	.	8qqa/	.	.	.
4E\	-li	4e\	-li	4g\	-li	4g\	-li
4C/	et	8d\L	et	8f\L	et	4g\	et
.	.	8c\J	.	8e\J	.	.	.
!	!	!LO:LB:g=original	!	!	!	!	!
=12	=12	=12	=12	=12	=12	=12	=12
2G\	te-	2c\	ter-	2e\	ter-	2g\	ter-
2GG/	.	2B\	-ra,	2d\	-ra	2g\	-ra
=13	=13	=13	=13	=13	=13	=13	=13
2GG/	-ra	4B\	glo-	4d\	glo-	2g\	glo-
.	.	4c\	.	4e\	.	.	.
.	.	8qe/	.	8qqg/	.	.	.
4G\	glo-	4d\	.	4f\	.	4g/	-ri-
8F\	-ri-	8c\	-ri-	8e\L	-ri-	4g/	-a
8F\	-a	8B\	-a	8d\J	-a	.	.
=14	=14	=14	=14	=14	=14	=14	=14
4E\	glo-	4c\	tu-	4e\	lu-	4g\	glo-
4D\	-ri-	4d\	.	4f\	.	4b\	-ri-
2C/	-a	2e\	-a	2g\	-a	2cc\	-a
!LO:LB:g=original	!	!	!	!	!	!	!
=15	=15	=15	=15	=15	=15	=15	=15
2BB/	glo-	2d\	glo-	2g\	glo-	2g\	glo-
4C/	-ri-	4e\	-ri-	4g\	-ri-	4g\	-ri-
4C/	-a	4e\	-a	4g\	-a	4g\	-a
!	!	!	!	!	!	!LO:LB:g=original	!
=16	=16	=16	=16	=16	=16	=16	=16
2G\	tu-	2e\	tu-	1g	tu-	2cc\	tu-
2GG/	.	2d\	.	.	.	2b\	.
=17	=17	=17	=17	=17	=17	=17	=17
!	!	!	!	!	!	!LO:N:vis=1.	!
1C	-a	1e	-a.	1g	-a.	1cc	-a.
!	!	!LO:LB:g=original	!	!LO:LB:g=original	!	!	!
=18||	=18||	=18||	=18||	=18||	=18||	=18||	=18||
*M2/2	*	*M2/2	*	*M2/2	*	*M2/2	*
*met(C.)	*	*met(C.)	*	*met(C.)	*	*met(C.)	*
4C\	O-	2e\	O-	2g\	O-	2cc\	O-
4E\	.	.	.	.	.	.	.
4G\	.	2d\	-san-	2f\	-san-	2b\	-san-
4GG/	.	.	.	.	.	.	.
=19	=19	=19	=19	=19	=19	=19	=19
2C/	-na	2c\	-na	2e\	-na	2g\	-na
2r	.	4r	.	4r	.	2r	.
.	.	4G/	o-	4e\	o-	.	.
=20	=20	=20	=20	=20	=20	=20	=20
!LO:TX:a:t=1.	!	!	!	!	!	!LO:TX:a:t=1.	!
1r	.	4A/	-san-	4f\	-san-	1r	.
.	.	4G/	-na	4e\	-na	.	.
.	.	4A/	in	4f\	in	.	.
.	.	4B\	ex-	4d\	ex-	.	.
=21	=21	=21	=21	=21	=21	=21	=21
2r	.	4c\	-cel-	4e\	-cel-	2r	.
.	.	4d\	.	4f\	.	.	.
4r	.	4e\	-sis	4g\	-sis	4r	.
4C/	o-	4e\	O-	4g\	O-	4cc\	o-
=22	=22	=22	=22	=22	=22	=22	=22
4C/	-san-	4e\	-san-	4g\	-san-	2cc\	-san-
4BB/	-na	4d\	-na	4f\	-na	.	.
!LO:LB:g=original	!	!	!	!	!	!	!
4BB/	in	4d\	in	4f\	in	2g\	.
4C/	ex-	4c\	ex-	4e\	ex-	.	.
!	!	!LO:LB:g=original	!	!LO:LB:g=original	!	!	!
=23	=23	=23	=23	=23	=23	=23	=23
!LO:TX:t=P:problem:dwie sylaby na jedną nutę	!	!	!	!	!	!	!
2GG/	-celsis	4c\	-cel-	4e\	-cel-	2g\	-na
.	.	4B\	-sis,	4d\	-sis,	.	.
4r	.	4r	.	4r	.	4r	.
4GG/	O-	8B\L	o-	8d\L	o-	4g\	o-
.	.	8c\J	.	8e\J	.	.	.
=24	=24	=24	=24	=24	=24	=24	=24
4G\	-san-	4d\	-san-	4f\	-san-	4b\	-san-
4D\	-na	4d\	-na	4f\	-na	4b\	-na
.	.	8qe/	.	8qg/	.	.	.
4BB/	in	4d\	in	4f\	in	4b\	in
4GG/	ex-	8c\L	ex-	8e\L	ex-	4b\	ex-
.	.	8B\J	.	8d\J	.	.	.
!	!	!	!	!	!	!LO:LB:g=original	!
=25	=25	=25	=25	=25	=25	=25	=25
4C/	-cel-	4c\	-cel-	4e\	-cel-	2g\	-cel-
4BB/	.	4d\	.	4f\	.	.	.
4C/	.	4c\	-sis,	4e\	.	4g\	-sis,
4E\	-sis	4e\	ex-	4g\	-sis	4cc\	in
=26	=26	=26	=26	=26	=26	=26	=26
.	.	8qg/	.	.	.	.	.
4F\	in	4f\	-cel-	4a\	in	4cc\	.
4F\	ex-	8e\L	.	8g\L	ex-	4a\	ex-
.	.	8d\J	.	8f\J	.	.	.
2G\	-cel-	4c\	.	4e\	-cel-	2g/	-cel-
.	.	4B\	.	4d\	.	.	.
=27	=27	=27	=27	=27	=27	=27	=27
1C	-sis.	2c\	-sis.	1e	-sis.	1g	-sis.
.	.	2r	.	.	.	.	.
!	!	!	!	!	!	!LO:TX:b:t=Volti.	!
==	==	==	==	==	==	==	==
*-	*-	*-	*-	*-	*-	*-	*-
!!!system-decoration: [(s1,s2,s3,s4)]
!!!ENC: Filip Voros
!!!END: 2023-11-12
!!!ENC: Leszek Kubiak
!!!END: 2024-01-17
